X:559
T:Reel 559
M:4/4
K:Gmaj
L:1/8
G>B (3BAB cBAB|GBdg e2d2||GcBg f>B (3cde |dcBA GA (3AGA :||2GABc gc'bage|dcBA G>A (3ABA |g2fd e2ed|gfge dBGB|g2gd e2ed| (3efg dB cBA>B|g2fg e2de|g2fd eBBA|G2BG A2GABcde |
